X: 40561
T: Tommy Peoples'
R: mazurka
M: 3/4
K: Dmajor
|:FG|AF [F2A2] dc|BG [G2B2] ef|ge [c2e2] Bc|BA [F2A2] FG|
AF [F2A2] dc|BG [G2B2] ef|ge [ce]A Bc|.d2 [F2d2]:|
|:fg|af [d2f2] cd|cB [G2B2] ef|ge [c2e2] Bc|BA [F2A2] fg|
af [d2f2] cd|cB [B2g2] ef|ge [ce]A Bc|.d2 [F2d2]:|

